source/img/icon-video-fullscreen.svg

<svg version="1.0" xmlns="http://www.w3.org/2000/svg" width="20" height="20"><path d="M0 0v6h3V3h3V0H3zm3 14H0v6h6v-3H3zM17 0h-3v3h3v3h3V0zm0 17h-3v3h6v-6h-3z" fill="#454545"/></svg>

<svg version="1.0" id="Layer_1" xmlns="http://www.w3.org/2000/svg" xmlns:xlink="http://www.w3.org/1999/xlink" width="20" height="20" viewBox="0 0 20 20" enable-background="new 0 0 20 20"><g><path fill="#454545" d="M0 0V3 6H3V3H6V0H3z"/><path fill="#454545" d="M3 14H0v3 3H3 6V17H3z"/><path fill="#454545" d="M17 0H14V3h3V6h3V3 0z"/><path fill="#454545" d="M17 17H14v3h3 3V17 14H17z"/></g></svg>
